X:1
T:St. Winifred, 87.87 D
T:Sydney Joseph Palmer Dunman, 1889
T:St. Winifred, 87.87 D
T:Public Domain
C:Sydney Joseph Palmer Dunman, 1889
Z:Public Domain
%%score ( 1 2 ) ( 3 4 )
L:1/8
M:3/2
K:E
V:1 treble 
V:2 treble 
V:3 bass 
V:4 bass 
V:1
 [EG]2 [EG]2 | [EG]6 [EG]2 [EA]2 [EG]2 | [EG]4 [DF]4 [DF]2 [EG]2 | [DA]6 [DA]2 [DB]2 [DF]2 | %4
 [EG]8 | [EG]2 [FA]2 | [GB]6 [EG]2 [Ec]2 [EB]2 | [FB]4 [F^A]4 [EA]2 [DB]2 | %8
 [Fc]6 [FB]2 [Fd]2 [Ec]2 | [DB]8 | [DA]2 [EG]2 | [DF]6 [EG]2 [DA]2 [Dc]2 | [EB]4 [EG]4 F2 [^EG]2 | %13
 [FA]6 [^EG]2 [FA]2 [Fd]2 | c4 B4 | [Ec]2 [Ad]2 | [Ge]6 [GB]2 [FA]2 [EG]2 | %17
 [Fd]4 [Ec]4 [CA]2 [CF]2 | [B,E]6 [EG]2 [DG]2 [DF]2 | E8 |] %20
V:2
 x4 | x12 | x12 | x12 | x8 | x4 | x12 | x12 | x12 | x8 | x4 | x12 | x8 F2 x2 | x12 | F8 | x4 | %16
 x12 | x12 | x12 | E8 |] %20
V:3
 [E,B,]2 [E,B,]2 | [E,B,]6 [E,B,]2 [E,C]2 [E,B,]2 | [B,,B,]4 [B,,B,]4 [B,,A,]2 [B,,G,]2 | %3
 [B,,F,]6 [B,,B,]2 [B,,A,]2 [B,,A,]2 | [E,G,]8 | [G,B,]2 [F,A,]2 | [E,G,]6 [G,B,]2 A,2 [G,B,]2 | %7
 [F,D]4 [F,C]4 [F,C]2 [F,B,]2 | [F,^A,]6 [F,D]2 [F,A,]2 [F,A,]2 | [B,,B,]8 | [B,,F,]2 [B,,G,]2 | %11
 [B,,A,]6 [B,,G,]2 [B,,F,]2 [B,,A,]2 | [E,G,]4 [E,B,]4 [A,C]2 [G,B,]2 | %13
 [F,A,]6 [C,C]2 [F,C]2 [F,A,]2 | E,4 D,4 | A,2 [F,B,]2 | [E,B,]6 [E,G,]2 [F,A,]2 [G,B,]2 | %17
 [G,^B,]4 [A,C]4 [A,,E,]2 [^A,,F,]2 | [B,,G,]6 [B,,B,]2 [B,,A,]2 [B,,A,]2 | [E,G,]8 |] %20
V:4
 x4 | x12 | x12 | x12 | x8 | x4 | x8 A,2 x2 | x12 | x12 | x8 | x4 | x12 | x12 | x12 | A,8 | %15
 A,2 x2 | x12 | x12 | x12 | x8 |] %20

